X:1
T:4 Old English Lyrics
T:So White, so Soft, so Sweet is She
T:4 Old English Lyrics
T:Frederick Delius
T:2. So white, so soft, so sweet is she
T:Ben Jonson
T:Creative Commons copyright waiver (CC0 1.0 Universal)
T:Creative Commons copyright waiver (CC0 1.0 Universal)
T:Creative Commons copyright waiver (CC0 1.0 Universal)
C:Frederick Delius
Z:Ben Jonson
Z:Creative Commons copyright waiver (CC0 1.0 Universal)
%%score 1 { ( 2 5 6 ) | ( 3 4 ) }
L:1/8
Q:1/4=90
M:6/4
K:C
V:1 treble nm="Voice"
V:2 treble nm="Piano"
V:5 treble 
V:6 treble 
V:3 bass 
V:4 bass 
V:1
"^Allegretto (lightly)" z12 |!mf![Q:1/4=116]!<(! d4 d2!<)! e4!mf! c c |!<(! d2 d2 d2!<)! e4 c2 | %3
w: |Have you seen but a|white li- ly grow, Be-|
 A2 E4 (G2 E2) G2 | A4 B2 z4 z2 |!mp! A4 A2 G4 E E | B4 A A c4 G2 | (A3 B) A2 (G2 E2) A2 | %8
w: \- fore rude hands * have|touched it?|Have you marked but the|fall of the snow, Be-|fore _ the soil _ hath|
 (B6 G4) B,2 | z12 | z12 |!mf! (B2 ^c2) B2 A4 A2 | ^F4 ^^F ^G =B2 A2!mp! =G2 | e4 ^c2 E4 A2 | %14
w: smutched _ it?|||Have * you felt the|wool of the bea- ver? Or|swan’s down ev- er?|
 z4 z2 z2!mf! A2 A2 | c3"^extra apostrophe\nin IMSLP\n" c c2 B3 B B2 | d4 _B2 z2 ^c2 c2 | %17
w: Or have|smelt of the bud of the|bri- ar? Or the|
!f! ^f4 ^c c (e4 ^c2) |[Q:1/4=113]!>(! z4"^poco rall." z2!>)![Q:1/4=110] z2!p! ^F2 F2 | %19
w: nard in the fire? _|Or have|
 A4 ^G ^F B2 A2 B2 |!>(! (^c2 A4-) (A2!>)!!pp! !breath!^G4) |[Q:1/4=102] z4 z2 z2!mf! ^c2!<(! ^F2 | %22
w: tas- ted the bag of the|bee? _ _ _|O so|
 (B6 ^c2)!<)!!f! ^f2 c2 |!>(! (d6!>)!!<(! !tenuto!.=c2)[Q:1/4=114] A2 c2!<)! | %24
w: white! _ O so|soft! _ O so|
!mf![Q:1/4=116] f6-!>(!"^dim." f4 A2!>)! |!p![Q:1/4=112] c6- c6 |[Q:1/4=116] z12 | %27
w: sweet _ is|she! _||
[Q:1/4=106] z12 |] %28
w: |
V:2
 [Ac]4 f2 !fermata![A^c]6 | d3 e d2 (=c2 A2 c2) | [DAd]6 [Fc]6 | A3 B A2 (G2 E2 G2) | %4
!>(! [CEA]6 [DG]6!>)! |!mp! E3 ^F E2 [G,EG]6 | [^DB]6 [=DE^Gc]6 | E3 ^F E2 [^DG]4 [EA]2 | %8
 E3 ^F E2 [^^C=G]4 [^DA]2 |!mp!!<(! B3 e =c2 (B2 ^G2 A2)!<)! |!>(! [^DAB]6 [^G,=DE]6!>)! | %11
!mf! ^f3 b g2 (f2 ^d2 e2) | [^B^f]6 [=F=B^c]6 |!mp! (e3 a ^f2) (e2 =c2) d2 | [D=E^Ge]6 [A,^CEA]6 | %15
 =c3 e c2 [B,^DB]6 | d3 ^f d2 [^E^c]6 |!f! ^f3 ^g f2 (e2 ^c2 e2) | %18
"^IMSLP148200 has a sharp \npencilled in on this F - it does \nsound necessary to me\nV\n"!>(! [^c!courtesy!^f]6!>)!!mf! [^F^B^g]6 | %19
!p! (^c3 e c2) (B2 A2 B2) |!>(! [^C^^F^c]6!>)!!pp! [=C^F]6 |!mf! B3 ^c B2 (A2 ^F2!<(! A2) | %22
 [^G,D^G]6!<)!!f! [^CG]6 |!>(! d3 e d2!>)!!<(! (c2 A2 c2)!<)! | %24
!mf! c'3 d' c'2!>(!"_dim." (a2 f2 a2)!>)! |!p! [A-ceac']6 [A_egd']6 | %26
!mf!!<(! f3 g f2 (_e2 c2 e2)!<)! |"^poco rit."!>(! (g6 !fermata!f6)!>)! |] %28
V:3
!p![I:staff -1] (F4 E2) [_E^F]6 |!mf! [D=FA]6 [=EF]6 |[I:staff +1] [F,C]6[I:staff -1] E6 | %3
[I:staff +1] [F,C]6 [E,B,]6 | [A,,G,]6 [E,B,]6 | [A,,,E,,A,,]6 [=C,,G,,E,]6 | A,6 ^G,6 | %7
!mf! [B,^C]6 [=B,,A,]4 [C,_B,]2 |!p! [=B,^C]6 [^A,,^G,]4 [B,,A,]2 | B,6 =C6 | %10
 (([^E,,^E,]4 [^F,,^F,]2)) (([^A,,^A,]4 [B,,B,]2)) | [D,D]6 [A,G]6 | ^G,6 =G,6 | %13
 (B,2 A,4) [=C,_G,_B,]4 [=B,,F,A,]2 | [_B,,E,^G,]6 [E,,A,,=G,]6 | [F,,C,_A,]6 [=B,,=A,]6 | %16
 [G,,D,_B,]4 [^A,,^G,]2 [^C,=B,]6 | [^F,,^C,A,]6 [C,B,]6 | ([^F,E]4 [E,D]2) [=D,^B,]6 | %19
 [^C,A,]6 [B,,A,]6 | [^D,^^F,]6 ^F,6 | [D,,,D,,]6 [^F,,^C,]6 | [E,,B,,E,]6 =G,6 | %23
 [F,,=B,,A,]4 [_B,,E,^G,]2 [A,,D,A,]6 |[K:treble] [_EAc]6 [_CFA]6 |[K:bass]{/C,-} C,6- C,6 | %26
 [F,,C,A,]6 [C,G,_B,]6 | (D4 _D2 C6) |] %28
V:4
 x12 | x6 A,6 | x6 A,6 | x12 | x12 | x12 | [B,,,^F,,B,,]6 [_B,,,_B,,]6 | [A,,=G,]6 x6 | %8
 [A,,G,]6 x6 | ^C,6 D,6 | x12 | x12 | x12 | [E,^C]6 x6 | x12 | x12 | x12 | x12 | x12 | x12 | %20
 (^A,,4 =A,,2) [^G,,,^G,,]6 | x12 | x6 [_E,,_B,,_E,]6 | x12 |[K:treble] x12 |[K:bass] x12 | x12 | %27
 =F,6- F,6 |] %28
V:5
 x12 | x12 | x12 | E6 D6 | x12 | [G,^C]6 (D2 =C2 B,2) | (G4 =F2) x6 | x12 | x12 | ^E6 ^F6 | x12 | %11
 [GB]6 [B^c]6 | ^F6 x6 | [GB]6 [E_B]4 [_EA]2 | x12 | [=CF]6 (G2 ^E2 ^F2) | %16
 [=DG]4 E2 (A2 ^^F2 ^G2) | [^F^c]6 [E^G]6 | A4"^poco rall." ^G2 x6 | ^F6 ^D6 | x12 | %21
 [B,^F]6 [A,E]6 | x12 | [DA]4 [DE^G]2 [CF]6 | f6 (_e2 d2 _d2) | [_B,E]6 [A,_E]6 | [Fc]6 [_EG]6 | %27
 B4 _B2 A6 |] %28
V:6
 x12 | x12 | x12 | x12 | x12 | x10 A2 | x12 | x12 | x12 | x12 | x12 | x12 | x12 | x12 | x12 | x12 | %16
 x12 | x12 | x12 | x12 | x12 | x12 | x12 | x12 | x12 | x12 | x12 | x12 |] %28

